assets/svg/1f454.svg

<svg xmlns="http://www.w3.org/2000/svg" viewBox="0 0 64 64" enable-background="new 0 0 64 64"><path fill="#d0d0d0" d="M64,59.675C64,62.063,61.795,64,59.076,64H4.924C2.205,64,0,62.063,0,59.675V9.081
		c0-2.389,2.205-4.324,4.924-4.324h54.152C61.795,4.757,64,6.692,64,9.081V59.675z"/><g fill="#94989b"><path d="m48.902 9.514h-33.802l3.278-9.514h27.24z"/><path d="m18.376 2.883l-3.276 6.631 11.97 17.726v-12.18z"/><path d="m45.616 2.883l3.286 6.631-11.982 17.726v-12.18z"/></g><g fill="#fff"><path d="m18.378 0l-3.278 9.514 11.98 14.846v-12.18z"/><path d="m45.62 0l3.282 9.514-11.979 14.846v-12.18z"/></g><path fill="#42ade2" d="m37.744 24.36h-11.484l-3.284 32.432 9.08 7.208 8.97-7.208z"/><path fill="#428bc1" d="m38.07 27.626l-.33-3.266h-11.487l-.338 3.327c2.438 1.746 9.557 1.596 12.155-.061"/><path fill="#42ade2" d="m38.563 24.36c-2.179 2.154-11.231 2.353-13.13 0-2.02-2.502 1.64-12.181 1.64-12.181s3.694 1.443 4.924 1.443 4.923-1.442 4.923-1.442 3.959 9.888 1.64 12.18"/></svg>

<svg xmlns="http://www.w3.org/2000/svg" width="64" height="64" viewBox="0 0 64 64"><path fill="#D0D0D0" d="M64 59.675C64 62.063 61.795 64 59.076 64H4.924C2.205 64 0 62.063 0 59.675V9.081c0-2.389 2.205-4.324 4.924-4.324h54.152C61.795 4.757 64 6.692 64 9.081v50.594z"/><path fill="#94989B" d="M48.902 9.514H15.098L18.378 0H45.62z"/><path fill="#94989B" d="M18.376 2.883l-3.278 6.631 11.976 17.729v-12.18zM45.616 2.883l3.286 6.631L36.92 27.243v-12.18z"/><path fill="#FFF" d="M18.378 0l-3.28 9.514L27.076 24.36V12.18zM45.62 0l3.282 9.514L36.923 24.36V12.18z"/><path fill="#42ADE2" d="M37.744 24.36H26.257l-3.281 32.432L32.062 64l8.964-7.208z"/><path fill="#428BC1" d="M38.074 27.626l-.33-3.266H26.257l-.338 3.327c2.438 1.746 9.557 1.596 12.155-.061z"/><path fill="#42ADE2" d="M38.563 24.36c-2.179 2.154-11.231 2.353-13.127 0-2.017-2.502 1.64-12.181 1.64-12.181S30.77 13.622 32 13.622s4.923-1.442 4.923-1.442 3.959 9.888 1.64 12.18z"/></svg>
